images/products-tubs-icon-3.svg

<svg width="20" height="21" viewBox="0 0 20 21" fill="none" xmlns="http://www.w3.org/2000/svg">
<path d="M15.4497 4.45534L10.8663 2.73867C10.3913 2.56367 9.61634 2.56367 9.14134 2.73867L4.55801 4.45534C3.67467 4.78867 2.95801 5.82201 2.95801 6.76367V13.5136C2.95801 14.1886 3.39967 15.0803 3.94134 15.4803L8.52467 18.9054C9.33301 19.5137 10.658 19.5137 11.4663 18.9054L16.0497 15.4803C16.5913 15.072 17.033 14.1886 17.033 13.5136V6.76367C17.0413 5.82201 16.3247 4.78867 15.4497 4.45534ZM10.6247 11.7053V13.897C10.6247 14.2386 10.3413 14.522 9.99967 14.522C9.65801 14.522 9.37467 14.2386 9.37467 13.897V11.7053C8.53301 11.4386 7.91634 10.6553 7.91634 9.73031C7.91634 8.58031 8.84967 7.64697 9.99967 7.64697C11.1497 7.64697 12.083 8.58031 12.083 9.73031C12.083 10.6636 11.4663 11.4386 10.6247 11.7053Z" fill="black"/>
</svg>

<svg width="20" height="21" fill="none" xmlns="http://www.w3.org/2000/svg"><path d="M15.45 4.455L10.866 2.74c-.475-.175-1.25-.175-1.725 0L4.558 4.455c-.883.334-1.6 1.367-1.6 2.309v6.75c0 .675.442 1.566.983 1.966l4.584 3.425c.808.609 2.133.609 2.941 0l4.584-3.425c.541-.408.983-1.291.983-1.966v-6.75c.008-.942-.708-1.975-1.583-2.309zm-4.825 7.25v2.192a.63.63 0 01-.625.625.63.63 0 01-.625-.625v-2.192A2.081 2.081 0 017.916 9.73a2.084 2.084 0 014.167 0c0 .934-.617 1.709-1.458 1.975z" fill="#000"/></svg>
